!!!COM: Music21
!!!OTL: mazurka_LAir-Des-Ebenistes
!!!OMV: mazurka_LAir-Des-Ebenistes
**kern
*clefG2
*k[]
*M3/4
=1
8r
8a
4.ee
8ff
=
2ee
4dd
=
8ddL
16ccL
16ddJJ
8bL
8aJ
8aL
8ddJ
=
8ddL
16ccL
16bJJ
2a
=
8aL
8bJ
8ccL
8eeJ
8aL
16aL
16gJJ
=
8aL
8bJ
4cc
4b
=
2.a
=
8r
8a
4.ee
8ff
!!linebreak:original
=
2ee
4dd
=
8ddL
16ccL
16ddJJ
8bL
8aJ
16aLL
16b
16cc
16ddJJ
=
4.ee
16ccLL
16bJJ
4a
=
4a
8.ddL
16eeJk
8ddL
16ccL
16ddJJ
=
8bL
8aJ
16aLL
16b
16cc
16ddJJ
4ee
=
8eeL
16ccL
16ddJJ
2a
=
8.ddL
16eeJk
8ddL
16ccL
16ddJJ
4b
!!linebreak:original
=
16bLL
16a
16g
16eJJ
4.a
8a
=
8bL
8ddJ
8bL
8ccJ
8aL
16aL
16gJJ
=
16aLL
16a
16g
16aJJ
8bL
8ddJ
8bL
8ccJ
=
16aLL
16cc
16a
16gJJ
4a
8bL
8ddJ
=
16ccLL
16dd
16cc
16ddJJ
4.a
8e
=
8aL
8eeJ
8ff#XL
8ddJ
4ee
!!linebreak:original
=
4cc
16ddLL
16cc
16dd
16eeJJ
8eeL
16ddL
16eeJJ
=
8ccL
16bL
16aJJ
8bL
8ccJ
8ddL
8eeJ
=
8aL
16aL
16gJJ
8aL
8ddJ
8.ccL
16bJk
=
*M1/4
4a
=
*M3/4
8aL
8bJ
8ccL
8eeJ
8aL
16aL
16gJJ
=
8aL
8bJ
4cc
8.bL
16aJk
=
2.a
=||
*-
